X:1
T:Title
%%score { ( 1 3 ) | ( 2 4 ) }
L:1/8
Q:1/4=100
M:6/8
K:Eb
V:1 treble nm="Grand Piano"
V:3 treble 
V:2 bass 
V:4 bass 
V:1
 G>GG FEF | G B2- B2 z | [DB]>[DF][DF] [DB][DB][DA] | G6 | G>GG FEF | G [GB]2- [GB]2 z | %6
w: W.~J.~Kirkpatrick * * * * *||||||
 =A>AA ABc | [B,B]6 | [Ge]>[Ge][Ge] [Ge]dc | B3 .G3 | E>EE [CF][CE][CF] | G2- [EG-] [FG]3 | %12
w: ||||||
 c>cc edc | B3 .G3 | [DB]2 [DF]/[EG]/ [FA][EG][DF] | [B,E]6 |] %16
w: ||||
V:2
 [E,B,E]>[E,B,E][E,B,E] [E,A,B,][E,G,B,][E,A,B,] | [E,B,E] [E,G,E]2- [E,G,E]2 z | %2
 [B,,F,]>[B,,B,][B,,B,] [B,,F,][B,,F,][B,,B,] | [E,B,E]6 | %4
 [E,B,E]>[E,B,E][E,B,E] [E,A,B,][E,G,B,][E,A,B,] | [E,B,E] [E,E]2- [E,E]2 z | %6
 [F,CE]>[F,CE][F,CE] [F,CE][F,B,D][F,=A,E] | z3 .A3 | [E,B,]>[E,B,][E,B,] [E,B,][E,B,E][E,A,E] | %9
 [E,G,E]3 .[E,B,]3 | [C,G,C]>[C,G,C][C,G,C] A,,A,,A,, | z2[K:treble] C .D3 | %12
 [A,CE]>[A,CE][A,CE][K:bass] [A,CE][A,B,E][A,E] | [E,G,E]3 .[E,B,]3 | %14
 [B,,F,]2 [B,,B,]/[B,,B,]/ [B,,B,][B,,B,][B,,A,] | [E,G,]6 |] %16
V:3
 x6 | x6 | x6 | x6 | x6 | x6 | x6 | D3 z3 | x6 | x6 | x6 | .[=B,D]3 z3 | x6 | x6 | x6 | x6 |] %16
V:4
 x6 | x6 | x6 | x6 | x6 | x6 | x6 | B,,6 | x6 | x6 | x6 | G,,6[K:treble] | x3[K:bass] x3 | x6 | %14
 x6 | x6 |] %16

